static/images/spinnaker-text-white.svg

<svg height="37" viewBox="0 0 137 37" width="137" xmlns="http://www.w3.org/2000/svg"><g fill="#fff" fill-rule="evenodd"><path d="m1.99875789 22.8812353c.9316.9924706 2.03120527 1.7897843 3.29737369 2.3933922 1.26472631.6028823 2.57776316.9046862 3.93694737.9046862 1.73124735 0 3.07673155-.3953921 4.03573155-1.1869019.9597211-.7900589 1.4392211-1.8289608 1.4392211-3.1167059 0-.6696275-.1139263-1.2398628-.3396158-1.7085294-.2271316-.4693922-.5328579-.8705883-.9193421-1.2064902-.3864842-.3351765-.8457948-.6362549-1.3793737-.9046863-.5328579-.2684314-1.1053737-.5491961-1.7182684-.8444706l-3.75668423-1.6490392c-.61361579-.2677059-1.23876842-.589098-1.87834211-.964902-.64029473-.3758039-1.21353158-.8306862-1.71898947-1.367549-.50617895-.5361372-.91934211-1.1723921-1.23876842-1.9102157-.32014737-.737098-.48022105-1.58809801-.48022105-2.55299997 0-.9917451.2069421-1.9167451.62010526-2.775.4124421-.8582549.98567895-1.60188235 1.71898947-2.23160784.73186842-.63045098 1.59785263-1.11943138 2.59723158-1.46839216.99937895-.3475098 2.09826316-.52307843 3.29737369-.52307843 1.57189478 0 3.02409478.30180392 4.35659998.90541176 1.3317842.60360785 2.4638369 1.38786275 3.396879 2.35276471l-1.7983053 2.17139216c-.7989263-.777-1.6858211-1.38713726-2.6570789-1.83041177-.9734211-.44182353-2.0723053-.66309804-3.29809478-.66309804-1.4659 0-2.64482106.34170588-3.53676316 1.02511765-.89338421.68413725-1.33899474 1.62945098-1.33899474 2.83594118 0 .64278431.12618421 1.18545098.37927369 1.62799995.25381052.4425491.59270526.8314118 1.01956842 1.1665883.4261421.3351765.8919421.6297255 1.3988421.8843725.50617895.2546471 1.02533684.4897059 1.55891579.704451l3.71702628 1.6076863c.7455685.3221176 1.4522.6913921 2.1177316 1.1063725.6655316.4157059 1.2387684.8981569 1.7189895 1.447353.4795.5499215.8594947 1.1927059 1.1385421 1.9305294.2804895.7378235.4196526 1.588098.4196526 2.5537255 0 1.0454313-.206221 2.0241176-.6193842 2.9346078-.4131631.9119412-1.0051474 1.7099804-1.7781158 2.3933922-.7729684.6841372-1.7052894 1.2202745-2.7984052 1.6084117-1.0923948.3881373-2.3311632.5832942-3.7163053.5832942-1.83868421 0-3.54397368-.3489608-5.11658947-1.0461569-1.57189474-.6964706-2.93107895-1.6483137-4.07611053-2.8548039z"/><path d="m22.2221211 24.2886863c.8789631.7516078 1.7319684 1.2804902 2.5575736 1.5888235.8263264.3083333 1.5589158.4628627 2.1984895.4628627.7989263 0 1.5387263-.1813725 2.2179579-.5433921.6799526-.3620196 1.2654474-.8713137 1.7593684-1.5278824.4917579-.6565686.8782421-1.4676666 1.1587316-2.4325686.2797684-.9656274.4196526-2.0516863.4196526-3.2581765 0-1.071549-.0937368-2.0509607-.2804894-2.9360588-.1860316-.883647-.4852685-1.6410588-.8991527-2.2707843-.4131631-.630451-.9453-1.1194314-1.5978526-1.4683922-.6539947-.3482352-1.4334526-.5230784-2.3390947-.5230784-.8256053 0-1.6577.2285294-2.4970053.6841373-.8393053.4563333-1.7391789 1.1121764-2.6981789 1.9704313zm0 5.9918235v6.5954314h-3.2779053v-27.78772551h2.7183684l.2797684 2.25192161h.1204158c.8782421-.7501569 1.8437316-1.39366671 2.8971895-1.92980397 1.0520158-.53686274 2.151621-.80529411 3.2973737-.80529411 1.2524684 0 2.3578421.23578431 3.3175631.70445098.959.46866666 1.7586474 1.1397451 2.3975 2.0103333.6395737.8720392 1.1255632 1.9174706 1.4594106 3.1370196.3331263 1.2195491.4989684 2.5936275.4989684 4.1215098 0 1.6628236-.2264105 3.1435491-.6792316 4.4436275-.452821 1.3008039-1.0657158 2.4071765-1.8386842 3.3183921-.7722474.9112157-1.6656316 1.6018824-2.6772684 2.0705491-1.013079.4686666-2.0787948.7037255-3.1978684.7037255-.9056422 0-1.8047948-.2016863-2.698179-.6028824-.8926632-.4026471-1.7918158-.9518431-2.6974579-1.6490392z"/><path d="m37.1291632 28.6321961h3.2779052v-19.54398041h-3.2779052zm1.6786105-23.56537257c-.6388526 0-1.1782-.20096078-1.6187632-.60360784-.439121-.40119608-.6590421-.91121569-.6590421-1.52788236 0-.6435098.2199211-1.15933333.6590421-1.54819608.4405632-.38813725.9799106-.58329411 1.6187632-.58329411.6395737 0 1.1796421.19515686 1.6187631.58329411.4398421.38886275.6597632.90468628.6597632 1.54819608 0 .61666667-.2199211 1.12668628-.6597632 1.52788236-.439121.40264706-.9791894.60360784-1.6187631.60360784z"/><path d="m42.9639211 9.08821569h2.7183684l.2790473 2.81490191h.1204158c.9323211-.9380588 1.9115106-1.7223137 2.9368474-2.35276466 1.0260579-.629 2.2194-.94531372 3.5778632-.94531372 2.0513947 0 3.5497421.64423529 4.4964842 1.93052938.9453 1.2870196 1.4190315 3.1914314 1.4190315 5.7103334v12.3862941h-3.2771842v-11.9437451c0-1.85-.2941894-3.183451-.8796842-4.0010785-.5869368-.8176274-1.5192579-1.2268039-2.7976842-1.2268039-1.0130789 0-1.9057421.2553726-2.6779895.7646667-.7729684.5092941-1.6526526 1.2601765-2.6376105 2.2511961v14.1557647h-3.2779052z"/><path d="m60.8294421 9.08821569h2.7183684l.2797684 2.81490191h.1204158c.9323211-.9380588 1.9107895-1.7223137 2.9368474-2.35276466 1.0260579-.629 2.218679-.94531372 3.5778632-.94531372 2.0506736 0 3.5497421.64423529 4.4957631 1.93052938.9460211 1.2870196 1.4190316 3.1914314 1.4190316 5.7103334v12.3862941h-3.2771842v-11.9437451c0-1.85-.2934684-3.183451-.8796842-4.0010785-.5862158-.8176274-1.5185369-1.2268039-2.7976842-1.2268039-1.013079 0-1.9050211.2553726-2.6779895.7646667s-1.6526526 1.2601765-2.6376105 2.2511961v14.1557647h-3.2779053z"/><path d="m80.9742105 23.3237843c0 1.1259608.3259158 1.9298039.9784684 2.4129804.6532737.482451 1.4594106.7240392 2.4184106.7240392.932321 0 1.8184947-.2212745 2.6578-.6638235.8393052-.442549 1.7247579-1.0918628 2.6578-1.9501177v-5.4288431c-1.6252527.2147451-2.9974158.4686667-4.1164895.7632157-1.1190737.296-2.0182263.6442353-2.6974579 1.0461569-.6799526.4019215-1.1666632.8640588-1.4594105 1.3871372-.2934684.5230784-.4391211 1.0933137-.4391211 1.7092549zm-3.2375263.2408628c0-2.1445491.9525105-3.7856079 2.8575316-4.9260785 1.9043-1.1390196 4.9356053-1.9363333 9.0924737-2.3926666 0-.6159412-.0598474-1.2195491-.1795421-1.8093726-.1196948-.589098-.3338474-1.1121765-.6395737-1.5685098-.3071684-.4556078-.7131211-.8241569-1.218579-1.1056471-.5069-.2814901-1.1594526-.4222352-1.9591-.4222352-1.1457526 0-2.2049789.2147451-3.1769579.6435098-.973421.4287647-1.8458947.9112156-2.6181421 1.4480784l-1.3188052-2.2932745c.9056421-.5890981 2.0117368-1.15860786 3.3168421-1.70852943 1.3058263-.54919608 2.7443263-.82488235 4.3169421-.82488235 2.3715421 0 4.0890895.73129411 5.1555263 2.19243138 1.0657158 1.4611372 1.5992947 3.4119804 1.5992947 5.8503529v11.9843726h-2.7183684l-.2790474-2.332451h-.0807578c-.9330422.7777255-1.9381895 1.4408235-3.0168843 1.9907451-1.0794157.5491961-2.2186789.8241569-3.4177894.8241569-1.6526527 0-3.0176053-.482451-4.0963-1.447353-1.0794158-.9649019-1.6187632-2.332451-1.6187632-4.102647z"/><path d="m95.1616421 0h3.2375263v19.3829216h.1196948l8.2733578-10.29470591h3.63699l-6.514711 7.84182351 7.393674 11.7021569h-3.596611l-5.675405-9.4103334-3.6369896 4.2629804v5.147353h-3.2375263z"/><path d="m122.379937 17.4124902c0-2.0110588-.419653-3.5454706-1.258958-4.6046863-.839305-1.0584902-2.018226-1.588098-3.537484-1.588098-.692932 0-1.352695.1407451-1.977848.4222353-.626594.2807647-1.192621.6834117-1.6988 1.2064902-.506179.5230784-.925831 1.1658627-1.258958 1.9298039-.333126.7646667-.553047 1.6425098-.659042 2.6342549zm-13.588958 1.4879804c0-1.6084118.245879-3.0492353.739079-4.3231961.4932-1.2725098 1.145753-2.3520392 1.958379-3.2371372.812626-.8850981 1.738458-1.56198044 2.778216-2.0306471 1.039036-.46866667 2.117731-.70445098 3.237526-.70445098 1.225068 0 2.324674.21547058 3.296653.64423529.9727.42876471 1.785326 1.04470589 2.4386 1.84999999.652552.8038431 1.152242 1.7687451 1.498347 2.8947059.346826 1.1266863.519879 2.3868627.519879 3.7805294 0 .7233137-.040379 1.3269216-.119695 1.8093726h-13.109458c.132674 2.1184313.778737 3.7943137 1.93819 5.0269215 1.158731 1.2333334 2.6715 1.85 4.536863 1.85.932321 0 1.791095-.1414706 2.577763-.4222353.785226-.2814902 1.538726-.6500392 2.258337-1.1063725l1.158731 2.1713921c-.853005.5375883-1.799026 1.0055294-2.837342 1.4081765-1.039758.4011961-2.225168.6028824-3.557673.6028824-1.305827 0-2.525127-.2350589-3.656458-.7037255-1.133495-.4686667-2.119174-1.1390196-2.958479-2.0103334-.839305-.8713137-1.498348-1.9370588-1.977848-3.1979607-.4795-1.259451-.71961-2.6944706-.71961-4.3021569z"/><path d="m126.055863 9.08821569h2.718369l.279768 3.53821571h.120416c.66481-1.2326079 1.471668-2.2112941 2.417689-2.93533336.9453-.72403922 1.977848-1.08605882 3.097642-1.08605882.772248 0 1.464458.13494117 2.078074.40264705l-.639574 2.89543133c-.319426-.106647-.613615-.1871764-.879684-.2415882-.266789-.0529608-.599195-.0798039-.998658-.0798039-.826326 0-1.685821.3351765-2.578484 1.0055294-.892663.6696275-1.672121 1.8362157-2.337653 3.4983137v12.5466275h-3.277905z"/></g></svg>

<?xml version="1.0" encoding="UTF-8"?>
<svg width="137px" height="37px" viewBox="0 0 137 37" version="1.1" xmlns="http://www.w3.org/2000/svg" xmlns:xlink="http://www.w3.org/1999/xlink">
    <!-- Generator: Sketch 44.1 (41455) - http://www.bohemiancoding.com/sketch -->
    <title>spinnaker-text-white</title>
    <desc>Created with Sketch.</desc>
    <defs></defs>
    <g id="Home-page" stroke="none" stroke-width="1" fill="none" fill-rule="evenodd">
        <g id="Desktop" transform="translate(-41.000000, -14.000000)" fill="#FFFFFF">
            <g id="Group-13" transform="translate(41.000000, 14.000000)">
                <g id="Spinnaker-Logo">
                    <path d="M1.99875789,22.8812353 C2.93035789,23.8737059 4.02996316,24.6710196 5.29613158,25.2746275 C6.56085789,25.8775098 7.87389474,26.1793137 9.23307895,26.1793137 C10.9643263,26.1793137 12.3098105,25.7839216 13.2688105,24.9924118 C14.2285316,24.2023529 14.7080316,23.163451 14.7080316,21.8757059 C14.7080316,21.2060784 14.5941053,20.6358431 14.3684158,20.1671765 C14.1412842,19.6977843 13.8355579,19.2965882 13.4490737,18.9606863 C13.0625895,18.6255098 12.6032789,18.3244314 12.0697,18.056 C11.5368421,17.7875686 10.9643263,17.5068039 10.3514316,17.2115294 L6.59474737,15.5624902 C5.98113158,15.2947843 5.35597895,14.9733922 4.71640526,14.5975882 C4.07611053,14.2217843 3.50287368,13.766902 2.99741579,13.2300392 C2.49123684,12.693902 2.07807368,12.0576471 1.75864737,11.3198235 C1.4385,10.5827255 1.27842632,9.73172549 1.27842632,8.76682353 C1.27842632,7.77507843 1.48536842,6.85007843 1.89853158,5.99182353 C2.31097368,5.13356863 2.88421053,4.38994118 3.61752105,3.76021569 C4.34938947,3.12976471 5.21537368,2.64078431 6.21475263,2.29182353 C7.21413158,1.94431373 8.31301579,1.7687451 9.51212632,1.7687451 C11.0840211,1.7687451 12.5362211,2.07054902 13.8687263,2.67415686 C15.2005105,3.27776471 16.3325632,4.06201961 17.2656053,5.02692157 L15.4673,7.19831373 C14.6683737,6.42131373 13.7814789,5.81117647 12.8102211,5.36790196 C11.8368,4.92607843 10.7379158,4.70480392 9.51212632,4.70480392 C8.04622632,4.70480392 6.86730526,5.0465098 5.97536316,5.72992157 C5.08197895,6.41405882 4.63636842,7.35937255 4.63636842,8.56586275 C4.63636842,9.20864706 4.76255263,9.75131373 5.01564211,10.1938627 C5.26945263,10.6364118 5.60834737,11.0252745 6.03521053,11.360451 C6.46135263,11.6956275 6.92715263,11.9901765 7.43405263,12.2448235 C7.94023158,12.4994706 8.45938947,12.7345294 8.99296842,12.9492745 L12.7099947,14.5569608 C13.4555632,14.8790784 14.1621947,15.2483529 14.8277263,15.6633333 C15.4932579,16.0790392 16.0664947,16.5614902 16.5467158,17.1106863 C17.0262158,17.6606078 17.4062105,18.3033922 17.6852579,19.0412157 C17.9657474,19.7790392 18.1049105,20.6293137 18.1049105,21.5949412 C18.1049105,22.6403725 17.8986895,23.6190588 17.4855263,24.529549 C17.0723632,25.4414902 16.4803789,26.2395294 15.7074105,26.9229412 C14.9344421,27.6070784 14.0021211,28.1432157 12.9090053,28.5313529 C11.8166105,28.9194902 10.5778421,29.1146471 9.1927,29.1146471 C7.35401579,29.1146471 5.64872632,28.7656863 4.07611053,28.0684902 C2.50421579,27.3720196 1.14503158,26.4201765 0,25.2136863 L1.99875789,22.8812353" id="Fill-22"></path>
                    <path d="M22.2221211,24.2886863 C23.1010842,25.0402941 23.9540895,25.5691765 24.7796947,25.8775098 C25.6060211,26.1858431 26.3386105,26.3403725 26.9781842,26.3403725 C27.7771105,26.3403725 28.5169105,26.159 29.1961421,25.7969804 C29.8760947,25.4349608 30.4615895,24.9256667 30.9555105,24.269098 C31.4472684,23.6125294 31.8337526,22.8014314 32.1142421,21.8365294 C32.3940105,20.870902 32.5338947,19.7848431 32.5338947,18.5783529 C32.5338947,17.5068039 32.4401579,16.5273922 32.2534053,15.6422941 C32.0673737,14.7586471 31.7681368,14.0012353 31.3542526,13.3715098 C30.9410895,12.7410588 30.4089526,12.2520784 29.7564,11.9031176 C29.1024053,11.5548824 28.3229474,11.3800392 27.4173053,11.3800392 C26.5917,11.3800392 25.7596053,11.6085686 24.9203,12.0641765 C24.0809947,12.5205098 23.1811211,13.1763529 22.2221211,14.0346078 L22.2221211,24.2886863 Z M22.2221211,30.2805098 L22.2221211,36.8759412 L18.9442158,36.8759412 L18.9442158,9.08821569 L21.6625842,9.08821569 L21.9423526,11.3401373 L22.0627684,11.3401373 C22.9410105,10.5899804 23.9065,9.94647059 24.9599579,9.41033333 C26.0119737,8.87347059 27.1115789,8.60503922 28.2573316,8.60503922 C29.5098,8.60503922 30.6151737,8.84082353 31.5748947,9.3094902 C32.5338947,9.77815686 33.3335421,10.4492353 33.9723947,11.3198235 C34.6119684,12.1918627 35.0979579,13.2372941 35.4318053,14.4568431 C35.7649316,15.6763922 35.9307737,17.0504706 35.9307737,18.5783529 C35.9307737,20.2411765 35.7043632,21.721902 35.2515421,23.0219804 C34.7987211,24.3227843 34.1858263,25.4291569 33.4128579,26.3403725 C32.6406105,27.2515882 31.7472263,27.9422549 30.7355895,28.4109216 C29.7225105,28.8795882 28.6567947,29.1146471 27.5377211,29.1146471 C26.6320789,29.1146471 25.7329263,28.9129608 24.8395421,28.5117647 C23.9468789,28.1091176 23.0477263,27.5599216 22.1420842,26.8627255 L22.2221211,30.2805098 L22.2221211,30.2805098 Z" id="Fill-23"></path>
                    <path d="M37.1291632,28.6321961 L40.4070684,28.6321961 L40.4070684,9.08821569 L37.1291632,9.08821569 L37.1291632,28.6321961 Z M38.8077737,5.06682353 C38.1689211,5.06682353 37.6295737,4.86586275 37.1890105,4.46321569 C36.7498895,4.06201961 36.5299684,3.552 36.5299684,2.93533333 C36.5299684,2.29182353 36.7498895,1.776 37.1890105,1.38713725 C37.6295737,0.999 38.1689211,0.803843137 38.8077737,0.803843137 C39.4473474,0.803843137 39.9874158,0.999 40.4265368,1.38713725 C40.8663789,1.776 41.0863,2.29182353 41.0863,2.93533333 C41.0863,3.552 40.8663789,4.06201961 40.4265368,4.46321569 C39.9874158,4.86586275 39.4473474,5.06682353 38.8077737,5.06682353 L38.8077737,5.06682353 Z" id="Fill-24"></path>
                    <path d="M42.9639211,9.08821569 L45.6822895,9.08821569 L45.9613368,11.9031176 L46.0817526,11.9031176 C47.0140737,10.9650588 47.9932632,10.1808039 49.0186,9.55035294 C50.0446579,8.92135294 51.238,8.60503922 52.5964632,8.60503922 C54.6478579,8.60503922 56.1462053,9.24927451 57.0929474,10.5355686 C58.0382474,11.8225882 58.5119789,13.727 58.5119789,16.245902 L58.5119789,28.6321961 L55.2347947,28.6321961 L55.2347947,16.688451 C55.2347947,14.838451 54.9406053,13.505 54.3551105,12.6873725 C53.7681737,11.8697451 52.8358526,11.4605686 51.5574263,11.4605686 C50.5443474,11.4605686 49.6516842,11.7159412 48.8794368,12.2252353 C48.1064684,12.7345294 47.2267842,13.4854118 46.2418263,14.4764314 L46.2418263,28.6321961 L42.9639211,28.6321961 L42.9639211,9.08821569" id="Fill-25"></path>
                    <path d="M60.8294421,9.08821569 L63.5478105,9.08821569 L63.8275789,11.9031176 L63.9479947,11.9031176 C64.8803158,10.9650588 65.8587842,10.1808039 66.8848421,9.55035294 C67.9109,8.92135294 69.1035211,8.60503922 70.4627053,8.60503922 C72.5133789,8.60503922 74.0124474,9.24927451 74.9584684,10.5355686 C75.9044895,11.8225882 76.3775,13.727 76.3775,16.245902 L76.3775,28.6321961 L73.1003158,28.6321961 L73.1003158,16.688451 C73.1003158,14.838451 72.8068474,13.505 72.2206316,12.6873725 C71.6344158,11.8697451 70.7020947,11.4605686 69.4229474,11.4605686 C68.4098684,11.4605686 67.5179263,11.7159412 66.7449579,12.2252353 C65.9719895,12.7345294 65.0923053,13.4854118 64.1073474,14.4764314 L64.1073474,28.6321961 L60.8294421,28.6321961 L60.8294421,9.08821569" id="Fill-26"></path>
                    <path d="M80.9742105,23.3237843 C80.9742105,24.4497451 81.3001263,25.2535882 81.9526789,25.7367647 C82.6059526,26.2192157 83.4120895,26.4608039 84.3710895,26.4608039 C85.3034105,26.4608039 86.1895842,26.2395294 87.0288895,25.7969804 C87.8681947,25.3544314 88.7536474,24.7051176 89.6866895,23.8468627 L89.6866895,18.4180196 C88.0614368,18.6327647 86.6892737,18.8866863 85.5702,19.1812353 C84.4511263,19.4772353 83.5519737,19.8254706 82.8727421,20.2273922 C82.1927895,20.6293137 81.7060789,21.091451 81.4133316,21.6145294 C81.1198632,22.1376078 80.9742105,22.7078431 80.9742105,23.3237843 Z M77.7366842,23.5646471 C77.7366842,21.420098 78.6891947,19.7790392 80.5942158,18.6385686 C82.4985158,17.499549 85.5298211,16.7022353 89.6866895,16.245902 C89.6866895,15.6299608 89.6268421,15.0263529 89.5071474,14.4365294 C89.3874526,13.8474314 89.1733,13.3243529 88.8675737,12.8680196 C88.5604053,12.4124118 88.1544526,12.0438627 87.6489947,11.7623725 C87.1420947,11.4808824 86.4895421,11.3401373 85.6898947,11.3401373 C84.5441421,11.3401373 83.4849158,11.5548824 82.5129368,11.9836471 C81.5395158,12.4124118 80.6670421,12.8948627 79.8947947,13.4317255 L78.5759895,11.138451 C79.4816316,10.5493529 80.5877263,9.97984314 81.8928316,9.42992157 C83.1986579,8.88072549 84.6371579,8.60503922 86.2097737,8.60503922 C88.5813158,8.60503922 90.2988632,9.33633333 91.3653,10.7974706 C92.4310158,12.2586078 92.9645947,14.209451 92.9645947,16.6478235 L92.9645947,28.6321961 L90.2462263,28.6321961 L89.9671789,26.2997451 L89.8864211,26.2997451 C88.9533789,27.0774706 87.9482316,27.7405686 86.8695368,28.2904902 C85.7901211,28.8396863 84.6508579,29.1146471 83.4517474,29.1146471 C81.7990947,29.1146471 80.4341421,28.6321961 79.3554474,27.6672941 C78.2760316,26.7023922 77.7366842,25.3348431 77.7366842,23.5646471 L77.7366842,23.5646471 Z" id="Fill-27"></path>
                    <polyline id="Fill-28" points="95.1616421 0 98.3991684 0 98.3991684 19.3829216 98.5188632 19.3829216 106.792221 9.08821569 110.429211 9.08821569 103.9145 16.9300392 111.308174 28.6321961 107.711563 28.6321961 102.036158 19.2218627 98.3991684 23.4848431 98.3991684 28.6321961 95.1616421 28.6321961 95.1616421 0"></polyline>
                    <path d="M122.379937,17.4124902 C122.379937,15.4014314 121.960284,13.8670196 121.120979,12.8078039 C120.281674,11.7493137 119.102753,11.2197059 117.583495,11.2197059 C116.890563,11.2197059 116.2308,11.360451 115.605647,11.6419412 C114.979053,11.9227059 114.413026,12.3253529 113.906847,12.8484314 C113.400668,13.3715098 112.981016,14.0142941 112.647889,14.7782353 C112.314763,15.542902 112.094842,16.4207451 111.988847,17.4124902 L122.379937,17.4124902 Z M108.790979,18.9004706 C108.790979,17.2920588 109.036858,15.8512353 109.530058,14.5772745 C110.023258,13.3047647 110.675811,12.2252353 111.488437,11.3401373 C112.301063,10.4550392 113.226895,9.77815686 114.266653,9.3094902 C115.305689,8.84082353 116.384384,8.60503922 117.504179,8.60503922 C118.729247,8.60503922 119.828853,8.8205098 120.800832,9.24927451 C121.773532,9.67803922 122.586158,10.2939804 123.239432,11.0992745 C123.891984,11.9031176 124.391674,12.8680196 124.737779,13.9939804 C125.084605,15.1206667 125.257658,16.3808431 125.257658,17.7745098 C125.257658,18.4978235 125.217279,19.1014314 125.137963,19.5838824 L112.028505,19.5838824 C112.161179,21.7023137 112.807242,23.3781961 113.966695,24.6108039 C115.125426,25.8441373 116.638195,26.4608039 118.503558,26.4608039 C119.435879,26.4608039 120.294653,26.3193333 121.081321,26.0385686 C121.866547,25.7570784 122.620047,25.3885294 123.339658,24.9321961 L124.498389,27.1035882 C123.645384,27.6411765 122.699363,28.1091176 121.661047,28.5117647 C120.621289,28.9129608 119.435879,29.1146471 118.103374,29.1146471 C116.797547,29.1146471 115.578247,28.8795882 114.446916,28.4109216 C113.313421,27.9422549 112.327742,27.271902 111.488437,26.4005882 C110.649132,25.5292745 109.990089,24.4635294 109.510589,23.2026275 C109.031089,21.9431765 108.790979,20.5081569 108.790979,18.9004706 L108.790979,18.9004706 Z" id="Fill-29"></path>
                    <path d="M126.055863,9.08821569 L128.774232,9.08821569 L129.054,12.6264314 L129.174416,12.6264314 C129.839226,11.3938235 130.646084,10.4151373 131.592105,9.69109804 C132.537405,8.96705882 133.569953,8.60503922 134.689747,8.60503922 C135.461995,8.60503922 136.154205,8.73998039 136.767821,9.00768627 L136.128247,11.9031176 C135.808821,11.7964706 135.514632,11.7159412 135.248563,11.6615294 C134.981774,11.6085686 134.649368,11.5817255 134.249905,11.5817255 C133.423579,11.5817255 132.564084,11.916902 131.671421,12.5872549 C130.778758,13.2568824 129.9993,14.4234706 129.333768,16.0855686 L129.333768,28.6321961 L126.055863,28.6321961 L126.055863,9.08821569" id="Fill-30"></path>
                </g>
            </g>
        </g>
    </g>
</svg>
